X: 1
T: Soldier's Joy
N:from the playing of Sally Sloane
Z:Ian Hayden 2017
M: 4/4
L: 1/8
K: Dmaj
|:AFDF AFDF|A2 d2 d2 B2|AFDF AFDF|G2E2 E2 FG|
|AFDF AFDF|A2 d2 d2 e2|fafd egec|d2 d2 d4:|
|:fdfd fagf|edcd efge|f2f2 fagf|edcB A2 de|
| fdfd fagf| ecAc efge| fafd egec|d2 d2 d4:|
